icons/core/flag.svg

<svg width="32" height="32" viewBox="0 0 32 32" fill="none" xmlns="http://www.w3.org/2000/svg">
<path fill-rule="evenodd" clip-rule="evenodd" d="M8 20V28H12V30H8V30H6V30H2V28H6V2H8V4.00004H28H29.7321L28.866 5.50004L25.1132 12L28.866 18.5L29.7321 20H28H8ZM8 18H26.2679L23.3812 13C23.0239 12.3812 23.0239 11.6188 23.3812 11L26.2679 6.00004H8V18Z" fill="black"/>
</svg>

<svg width="32" height="32" viewBox="0 0 32 32" xmlns="http://www.w3.org/2000/svg">
    <path fill-rule="evenodd" d="M8 20v8h4v2H2v-2h4V2h2v2h21.732l-.866 1.5-3.753 6.5 3.753 6.5.866 1.5H8zm0-2h18.268l-2.887-5a2 2 0 010-2l2.887-5H8v12z"/>
</svg>
